src/app/assets/img/icon-header-phone.svg

<svg width="20" height="20" viewBox="0 0 20 20" fill="none" xmlns="http://www.w3.org/2000/svg">
<g clip-path="url(#clip0_1044_16615)">
<path fill-rule="evenodd" clip-rule="evenodd" d="M10.1157 0.957955C14.6007 0.957955 18.2416 4.60633 18.2416 9.10057C18.2416 9.36497 18.4557 9.57955 18.7196 9.57955C18.9834 9.57955 19.1975 9.36497 19.1975 9.10057C19.1975 4.07802 15.1284 0 10.1157 0C9.85184 0 9.6377 0.214581 9.6377 0.478977C9.6377 0.743373 9.85184 0.957955 10.1157 0.957955Z" fill="#27C6B0"/>
<path fill-rule="evenodd" clip-rule="evenodd" d="M10.1157 3.83149C13.0176 3.83149 15.3736 6.19236 15.3736 9.10024C15.3736 9.36464 15.5877 9.57922 15.8516 9.57922C16.1155 9.57922 16.3296 9.36464 16.3296 9.10024C16.3296 5.66359 13.5453 2.87354 10.1157 2.87354C9.85184 2.87354 9.6377 3.08812 9.6377 3.35251C9.6377 3.61691 9.85184 3.83149 10.1157 3.83149Z" fill="#27C6B0"/>
<path fill-rule="evenodd" clip-rule="evenodd" d="M10.2376 6.94977C11.8698 6.94977 13.1943 8.27762 13.1943 9.9126C13.1943 10.2444 13.463 10.5137 13.7942 10.5137C14.1253 10.5137 14.394 10.2444 14.394 9.9126C14.394 7.61399 12.5314 5.74756 10.2376 5.74756C9.90644 5.74756 9.6377 6.01685 9.6377 6.34866C9.6377 6.68047 9.90644 6.94977 10.2376 6.94977Z" fill="#27C6B0"/>
<path fill-rule="evenodd" clip-rule="evenodd" d="M4.58895 1.26422L6.69082 3.40967C7.11769 3.84538 7.12718 4.54043 6.71238 4.98769L5.73937 6.03686C5.29828 6.51247 5.05304 7.13765 5.05288 7.78693C5.05285 7.92775 5.07984 8.06726 5.1324 8.19786L5.51922 9.15903C6.36088 11.2504 8.06335 12.8753 10.1889 13.616L11.4007 14.0383C12.0957 14.1502 12.8028 13.9289 13.3106 13.4405L14.3653 12.4264C14.8196 11.9895 15.5412 12.0044 15.9772 12.4596L17.913 14.4805C18.3219 14.9073 18.3379 15.5764 17.9498 16.0224L15.7657 18.5327C15.3985 18.9546 14.8672 19.1968 14.3085 19.1968H13.9809C13.387 19.1968 12.7954 19.1213 12.2204 18.9721C6.37659 17.4559 1.8021 12.9011 0.251836 7.05509L0.222447 6.94426C0.0747757 6.38739 0 5.81365 0 5.23746V4.91598C0 4.32256 0.248436 3.75637 0.684826 3.35522L3.0047 1.22269C3.45762 0.806346 4.15838 0.824719 4.58895 1.26422Z" fill="#02836F"/>
</g>
<defs>
<clipPath id="clip0_1044_16615">
<rect width="19.1968" height="19.1968" fill="white"/>
</clipPath>
</defs>
</svg>

<svg xmlns="http://www.w3.org/2000/svg" width="20" height="20" fill="none">
  <g fill-rule="evenodd" clip-path="url(#customPrefix__icon-header-phone_svg__a)" clip-rule="evenodd">
    <path fill="#27C6B0" d="M10.116.958c4.485 0 8.126 3.648 8.126 8.143a.479.479 0 1 0 .956 0c0-5.023-4.07-9.101-9.082-9.101a.479.479 0 0 0 0 .958"/>
    <path fill="#27C6B0" d="M10.116 3.831a5.266 5.266 0 0 1 5.258 5.27.479.479 0 1 0 .956 0c0-3.437-2.785-6.227-6.214-6.227a.479.479 0 0 0 0 .957"/>
    <path fill="#27C6B0" d="M10.238 6.95a2.96 2.96 0 0 1 2.956 2.963.6.6 0 1 0 1.2 0 4.163 4.163 0 0 0-4.156-4.165.6.6 0 0 0 0 1.202"/>
    <path fill="#02836F" d="M4.589 1.264 6.69 3.41c.427.435.436 1.13.021 1.578L5.74 6.037a2.58 2.58 0 0 0-.686 1.75c0 .14.027.28.08.41l.386.962a7.8 7.8 0 0 0 4.67 4.457l1.212.422a2.24 2.24 0 0 0 1.91-.598l1.054-1.014a1.14 1.14 0 0 1 1.612.034l1.936 2.02c.409.427.425 1.096.037 1.542l-2.184 2.51a1.93 1.93 0 0 1-1.457.665h-.328a7 7 0 0 1-1.76-.225A16.74 16.74 0 0 1 .25 7.055l-.029-.11A6.7 6.7 0 0 1 0 5.236v-.321c0-.593.248-1.16.685-1.56l2.32-2.133a1.14 1.14 0 0 1 1.584.041"/>
  </g>
  <defs>
    <clipPath id="customPrefix__icon-header-phone_svg__a">
      <path fill="#fff" d="M0 0h19.197v19.197H0z"/>
    </clipPath>
  </defs>
</svg>
